X:1
T:Title
%%score { ( 1 3 4 ) | ( 2 5 ) }
L:1/8
Q:1/4=106
M:4/4
K:Ab
V:1 treble nm="Grand Piano"
V:3 treble 
V:4 treble 
V:2 bass 
V:5 bass 
V:1
 [Ec]3 [Fd] [Ec][DB][CA][CE] | [EA]2 [GB]2 [Ac]4 | [ce]3 [df] [ce][Ac][CEA][CE] | %3
w: D.~D.~Ford * * * * *|||
 [EA]2 [Ac]2 [GB]4 | [Ec]3 [Fd] [Ec][DB][CA][CE] | [EA]2 [GB]2 [Ac]4 | %6
w: |||
 [ce]3 [df] [ce][Ac][EA][Ac] | [GB]3 A [CA]4 | [Ae]6 z2 | [Ac]6 z2 | [GB]6 z2 | %11
w: |||||
 [CFA]3 [EGB] [EAc]4 | [Ae]6 z2 | [Ac]6 z2 | [FB]4 z4 | A6 z2 |] %16
w: |||||
V:2
 A,,E,A,E, E,,E,F,E, | C,A,E,B, A,,E,A,E, | A,,E,A,E, A,,E,A,E, | C,A,A,,A, E,,B,,E,B,, | %4
 A,,E,A,E, E,,E,F,E, | C,A,E,B, A,,E,A,A,, | A,,E,A,E, A,,E,C,A,, | E,,G,,B,,E, A,,4 | %8
 [A,C]A,A,A, A,[K:treble]AAE | A,A,A,A, A,2 EA | E,E,E,E, z[K:treble] B[K:bass] z D | F,3 E, A,4 | %12
 [A,C]A,A,A, A,[K:treble]AAE | F,F,F,F, F,2[K:treble] EA | [D,A,]D,D,[B,,A,] [E,A,]2 [E,G,]2 | %15
 z E,F,F, E,2 z2 |] %16
V:3
 x8 | x8 | x8 | x8 | x8 | x8 | x8 | x8 | z CCC CccA | EEEE E2 Ac | EEEE z d[EAc][GB] | x8 | %12
 z CCC CccA | CCCC C2 Ac | z A,A,[Fd] [Ec]2 [DB]2 | [A,C]CDD C2 z2 |] %16
V:4
 x8 | x8 | x8 | x8 | x8 | x8 | x8 | x8 | x8 | x8 | z4 E2 z2 | x8 | x8 | x8 | x8 | x8 |] %16
V:5
 x8 | x8 | x8 | x8 | x8 | x8 | x8 | x8 | x5[K:treble] x3 | x8 | z4 E,2[K:treble][K:bass] E,2 | x8 | %12
 x5[K:treble] x3 | x6[K:treble] x2 | x8 | A,,6 z2 |] %16

